svgs/regular/box-circle-check.svg

<svg xmlns="http://www.w3.org/2000/svg" viewBox="0 0 576 512"><!--! Font Awesome Pro 6.0.0-alpha3 by @fontawesome - https://fontawesome.com License - https://fontawesome.com/license (Commercial License) --><path d="M432 224C352.5 224 288 288.5 288 368s64.46 144 144 144C511.5 512 576 447.5 576 368S511.5 224 432 224zM499.3 341.1l-74.66 74.66c-3.125 3.125-7.219 4.688-11.31 4.688s-8.188-1.562-11.31-4.688l-37.34-37.33c-6.25-6.25-6.25-16.38 0-22.62s16.38-6.25 22.62 0l26.03 26.02l63.34-63.34c6.25-6.25 16.38-6.25 22.62 0S505.6 335.7 499.3 341.1zM64 432c-8.822 0-16-7.178-16-16V206.7h313.7C383.3 197.3 407 192 432 192c5.402 0 10.72 .3301 16 .8066V176.8c0-10.99-2.83-21.8-8.219-31.38l-45.43-80.76C383 44.47 361.7 32 338.6 32H109.4c-23.12 0-44.45 12.47-55.78 32.62L8.219 145.4C2.83 154.1 0 165.8 0 176.8V416c0 35.35 28.65 64 64 64h232.2c-11.78-14.26-21.2-30.48-28.05-48H64zM247 80h91.55c5.771 0 11.12 3.125 13.95 8.154l39.67 70.52h-145.2V80zM95.48 88.15C98.31 83.13 103.7 80 109.4 80h89.59v78.67H55.82L95.48 88.15z"/></svg>

<svg xmlns="http://www.w3.org/2000/svg" viewBox="0 0 576 512"><!-- Font Awesome Pro 6.0.0-alpha2 by @fontawesome - https://fontawesome.com License - https://fontawesome.com/license (Commercial License) --><path d="M432.002 224C352.463 224 288 288.463 288 368S352.463 512 432.002 512C511.537 512 576 447.537 576 368S511.537 224 432.002 224ZM499.312 341.984L424.656 416.641C421.531 419.766 417.438 421.328 413.344 421.328S405.156 419.766 402.031 416.641L364.688 379.312C358.438 373.062 358.438 362.937 364.688 356.688S381.063 350.438 387.312 356.688L413.344 382.703L476.688 319.359C482.938 313.109 493.063 313.109 499.312 319.359S505.562 335.734 499.312 341.984ZM64 432C55.178 432 48 424.822 48 416V206.672H361.746C383.277 197.281 407.01 192 432 192C437.402 192 442.723 192.33 448 192.807V176.764C448 165.773 445.17 154.967 439.781 145.387L394.352 64.623C383.016 44.471 361.691 32 338.57 32H109.43C86.309 32 64.984 44.471 53.648 64.623L8.219 145.387C2.83 154.967 0 165.773 0 176.764V416C0 451.346 28.654 480 64 480H296.234C284.455 465.736 275.031 449.516 268.182 432H64ZM247.016 80H338.57C344.342 80 349.686 83.125 352.516 88.154L392.182 158.672H247.016V80ZM95.484 88.154C98.314 83.125 103.658 80 109.43 80H199.016V158.672H55.818L95.484 88.154Z"/></svg>
